X:1
T:Title
%%score { ( 1 4 ) | ( 2 3 ) }
L:1/8
M:2/4
K:F
V:1 treble nm="Grand Piano"
V:4 treble 
V:2 bass 
V:3 bass 
V:1
 z4 |[Q:1/4=88] [FA][CAc] [CAc][CAc] | [GB][DBd] [DBd]D | [EG][B,GB] [B,B][B,B] | z2 c2 | FA AA | %6
 z2 B2 | E[CG] [CG][CG] | [F,A,CF]4 | [FA][CAc] [CAc][CAc] | [GB][DBd] [DBd]D | %11
 [EG][B,GB] [B,B][B,B] | z2 c2 | FA AA | z2 B2 | E[CG] [CG][CG] | [F,A,CF]4 | [Ac][Ac] [Ac][Ac] | %18
 [GB][Bd] [Bd]2 | [EG][GB] [GB][GB] | [FA][Ac] [Ac]2 | [A,CF][CFA] [CFA][CFA] | %22
 [B,DG][DGB] [DGB]2 | [G,CE][B,EG] [B,EG][B,EG] | [A,F]4 |] %25
V:2
 z4 | z A, A,A, | z B, B,B, | z G, G,G, | z[K:treble] [A,CA] [A,C][K:bass]A, | z [F,C] [F,C][F,C] | %6
 z [D,G,B,] [D,G,B,][D,G,] | z E, E,E, | F,,4 | z A, A,A, | z B, B,B, | z G, G,G, | %12
 z[K:treble] [A,CA] [A,C][K:bass]A, | z [F,C] [F,C][F,C] | z [D,G,B,] [D,G,B,][D,G,] | z E, E,E, | %16
 F,,4 | F,F, F,F, | B,,B,, B,,2 | C,C, C,D, | F,F, F,2 | F,F, F,F, | B,,B,, B,,2 | C,C, C,C, | %24
 F,4 |] %25
V:3
 x4 | F,,4 | B,,4 | C,4 | F,4[K:treble][K:bass] | A,,4 | B,,4 | C,4 | x4 | F,,4 | B,,4 | C,4 | %12
 F,4[K:treble][K:bass] | A,,4 | B,,4 | C,4 | x4 | x4 | x4 | x4 | x4 | x4 | x4 | x4 | x4 |] %25
V:4
 x4 | x4 | x4 | x4 | Fc z C | x4 | GB z B, | x4 | x4 | x4 | x4 | x4 | Fc z C | x4 | GB z B, | x4 | %16
 x4 | x4 | x4 | x4 | x4 | x4 | x4 | x4 | x4 |] %25

